X:8
T:Kate at the Gate
C:Nigel Eaton
R:scottische
M:4/4
K:D
Bc|d2cd A3G|E2A2 A3F|G2FG E2FG|A2B2 G2E2|
   d2cd A3G|E2A2 A2GA|c2Bc d2ed|c2A2 A2:|
de|f2d2 AfdA|e2c2 AecA|GFGB AdcA|GEGA GDde|
   f2d2 AfdA|e2c2 AecA|GFGB AdcA|GEAF D2de|
f2d2 AfdA|e2c2 AecA|GFGB AdcA|dcde f=fec|
d2fd AfdA|e2c2 AecA|GFGB AdcA|GEAF D4|]
def2 f3d|fga2 afga|g2e2 cgec|g2e2 cgec|
def2 f3d|fga2 afga|[1 gaba gfed|c6 Bc:|[2 b3ag3e|c3d c2|]

